dist/svg/icon-ui-map.svg

<svg xmlns="http://www.w3.org/2000/svg" viewBox="0 0 24 24" fill="none" stroke="currentColor" stroke-width="2" stroke-linecap="round" stroke-linejoin="round" class="feather feather-map"><path d="M1 6v16l7-4 8 4 7-4V2l-7 4-8-4-7 4zM8 2v16M16 6v16"/></svg>

<svg xmlns="http://www.w3.org/2000/svg" viewBox="0 0 24 24" fill="none" stroke="currentColor" stroke-width="2" stroke-linecap="round" stroke-linejoin="round" class="feather feather-map"><path d="M1 6L1 22 8 18 16 22 23 18 23 2 16 6 8 2 1 6zM8 2L8 18M16 6L16 22"/></svg>
